packages/website/src/images/contributors/salesforce.svg

<svg xmlns="http://www.w3.org/2000/svg" fill="none" viewBox="0.06 0.5 272 190"><mask id="mask0_1:2" style="mask-type:alpha" maskUnits="userSpaceOnUse" x="0" y="0" width="273" height="191"><path d="M.06.5h272v190H.06V.5Z" fill="#fff"/></mask><g mask="url('#mask0_1:2')" fill-rule="evenodd" clip-rule="evenodd"><path d="M113 21.3c8.78-9.14 21-14.8 34.5-14.8 18 0 33.6 10 42 24.9a58 58 0 0 1 23.7-5.05c32.4 0 58.7 26.5 58.7 59.2s-26.3 59.2-58.7 59.2c-3.96 0-7.82-.398-11.6-1.15-7.35 13.1-21.4 22-37.4 22a42.701 42.701 0 0 1-18.8-4.32c-7.45 17.5-24.8 29.8-45 29.8-21.1 0-39-13.3-45.9-32a45.1 45.1 0 0 1-9.34.972c-25.1 0-45.4-20.6-45.4-45.9 0-17 9.14-31.8 22.7-39.8a52.6 52.6 0 0 1-4.35-21c0-29.2 23.7-52.8 52.9-52.8 17.1 0 32.4 8.15 42 20.8" fill="#00A1E0"/><path d="M39.4 99.3c-.171.446.061.539.116.618.511.37 1.03.638 1.55.939 2.78 1.47 5.4 1.9 8.14 1.9 5.58 0 9.05-2.97 9.05-7.75v-.094c0-4.42-3.92-6.03-7.58-7.18l-.479-.155c-2.77-.898-5.16-1.68-5.16-3.5v-.093c0-1.56 1.4-2.71 3.56-2.71 2.4 0 5.26.799 7.09 1.81 0 0 .542.35.739-.173.107-.283 1.04-2.78 1.14-3.06.106-.293-.08-.514-.271-.628-2.1-1.28-5-2.15-8-2.15l-.557.002c-5.11 0-8.68 3.09-8.68 7.51v.095c0 4.66 3.94 6.18 7.62 7.23l.592.184c2.68.824 5 1.54 5 3.42v.094c0 1.73-1.51 3.02-3.93 3.02-.941 0-3.94-.016-7.19-2.07-.393-.229-.617-.394-.92-.579-.16-.097-.56-.272-.734.252l-1.1 3.06.004.008Zm81.696-.008c-.171.446.061.539.118.618.509.37 1.03.638 1.55.939 2.78 1.47 5.4 1.9 8.14 1.9 5.58 0 9.05-2.97 9.05-7.75v-.094c0-4.42-3.91-6.03-7.58-7.18l-.479-.155c-2.77-.898-5.16-1.68-5.16-3.5v-.093c0-1.56 1.4-2.71 3.56-2.71 2.4 0 5.25.799 7.09 1.81 0 0 .542.35.74-.173.106-.283 1.04-2.78 1.13-3.06.107-.293-.08-.514-.27-.628-2.1-1.28-5-2.15-8-2.15l-.558.002c-5.11 0-8.68 3.09-8.68 7.51v.095c0 4.66 3.94 6.18 7.62 7.23l.591.184c2.69.824 5 1.54 5 3.42v.094c0 1.73-1.51 3.02-3.93 3.02-.943 0-3.95-.016-7.19-2.07-.393-.229-.623-.387-.921-.579-.101-.064-.572-.248-.733.252l-1.1 3.06.012.008Zm55.788-9.368c0 2.7-.504 4.83-1.49 6.34-.984 1.49-2.47 2.22-4.54 2.22s-3.55-.724-4.52-2.21c-.977-1.5-1.47-3.64-1.47-6.34 0-2.7.496-4.82 1.47-6.31.968-1.48 2.44-2.19 4.52-2.19 2.08 0 3.56.717 4.54 2.19.992 1.49 1.49 3.61 1.49 6.31v-.01Zm4.66-5c-.459-1.55-1.17-2.91-2.12-4.05a10.151 10.151 0 0 0-3.58-2.72c-1.42-.665-3.1-1-5-1s-3.57.337-5 1c-1.42.664-2.63 1.58-3.58 2.72-.948 1.14-1.66 2.5-2.12 4.05-.455 1.54-.686 3.22-.686 5.01 0 1.79.231 3.47.686 5.01.457 1.55 1.17 2.91 2.12 4.05.951 1.14 2.16 2.05 3.58 2.7 1.43.648 3.11.978 5 .978 1.89 0 3.57-.33 4.99-.978 1.42-.648 2.63-1.56 3.58-2.7.949-1.14 1.66-2.5 2.12-4.05.454-1.54.685-3.22.685-5.01 0-1.78-.231-3.47-.685-5.01h.01Zm38.29 12.8c-.153-.453-.595-.282-.595-.282-.677.259-1.4.499-2.17.619-.776.122-1.64.183-2.55.183-2.25 0-4.05-.671-5.33-2-1.29-1.33-2.01-3.47-2-6.37.007-2.64.645-4.62 1.79-6.14 1.13-1.5 2.87-2.28 5.17-2.28 1.92 0 3.39.223 4.93.705 0 0 .365.159.54-.322.409-1.13.711-1.94 1.15-3.18.124-.355-.18-.505-.291-.548-.604-.236-2.03-.623-3.11-.786-1.01-.154-2.18-.234-3.5-.234-1.96 0-3.7.335-5.19.999-1.49.663-2.75 1.58-3.75 2.72-1 1.14-1.76 2.5-2.27 4.05-.505 1.54-.76 3.23-.76 5.02 0 3.86 1.04 6.99 3.1 9.28 2.06 2.3 5.16 3.46 9.2 3.46 2.39 0 4.84-.483 6.6-1.18 0 0 .336-.162.19-.554l-1.15-3.16h-.004Zm8.154-10.4c.223-1.5.634-2.75 1.28-3.72.967-1.48 2.44-2.29 4.51-2.29s3.44.814 4.42 2.29c.65.975.934 2.27 1.04 3.72l-11.3-.002.05.002Zm15.7-3.3c-.397-1.49-1.38-3-2.02-3.69-1.02-1.09-2.01-1.86-3-2.28a11.499 11.499 0 0 0-4.52-.917c-1.97 0-3.76.333-5.21 1.01-1.45.682-2.67 1.61-3.63 2.77-.959 1.16-1.68 2.53-2.14 4.1-.46 1.55-.692 3.25-.692 5.03 0 1.82.241 3.51.715 5.04.479 1.54 1.25 2.89 2.29 4.01 1.04 1.13 2.37 2.01 3.97 2.63 1.59.615 3.52.934 5.73.927 4.56-.015 6.96-1.03 7.94-1.58.175-.098.34-.267.134-.754l-1.03-2.89c-.158-.431-.594-.275-.594-.275-1.13.422-2.73 1.18-6.48 1.17-2.45-.004-4.26-.727-5.4-1.86-1.16-1.16-1.74-2.85-1.83-5.25l15.8.012s.416-.004.459-.41c.017-.168.541-3.24-.471-6.79l-.021-.003Zm-142 3.3c.223-1.5.635-2.75 1.28-3.72.968-1.48 2.44-2.29 4.51-2.29s3.44.814 4.42 2.29c.649.975.933 2.27 1.04 3.72l-11.3-.002.05.002Zm15.7-3.3c-.396-1.49-1.38-3-2.02-3.69-1.02-1.09-2.01-1.86-3-2.28a11.499 11.499 0 0 0-4.52-.917c-1.97 0-3.76.333-5.21 1.01-1.45.682-2.67 1.61-3.63 2.77-.957 1.16-1.68 2.53-2.14 4.1-.459 1.55-.69 3.25-.69 5.03 0 1.82.239 3.51.716 5.04.478 1.54 1.25 2.89 2.28 4.01 1.04 1.13 2.37 2.01 3.97 2.63 1.59.615 3.51.934 5.73.927 4.56-.015 6.96-1.03 7.94-1.58.174-.098.34-.267.133-.754l-1.03-2.89c-.159-.431-.595-.275-.595-.275-1.13.422-2.73 1.18-6.48 1.17-2.44-.004-4.26-.727-5.4-1.86-1.16-1.16-1.74-2.85-1.83-5.25l15.8.012s.416-.004.459-.41c.017-.168.541-3.24-.472-6.79l-.011-.003Zm-49.8 13.6c-.619-.494-.705-.615-.91-.936-.313-.483-.473-1.17-.473-2.05 0-1.38.46-2.38 1.41-3.05-.01.002 1.36-1.18 4.58-1.14 1.433.026 2.863.148 4.28.365v7.17h.002s-2 .431-4.26.567c-3.21.193-4.63-.924-4.62-.921l-.009-.005Zm6.28-11.1c-.64-.047-1.47-.07-2.46-.07-1.35 0-2.66.168-3.88.498-1.23.332-2.34.846-3.29 1.53a7.63 7.63 0 0 0-2.29 2.6c-.559 1.04-.844 2.26-.844 3.64 0 1.4.243 2.61.723 3.6a6.539 6.539 0 0 0 2.06 2.47c.877.638 1.96 1.11 3.21 1.39 1.24.283 2.64.426 4.18.426 1.62 0 3.23-.136 4.79-.399a95.548 95.548 0 0 0 3.97-.772c.526-.121 1.11-.28 1.11-.28.39-.099.36-.516.36-.516l-.009-14.4c0-3.16-.844-5.51-2.51-6.96-1.66-1.45-4.09-2.18-7.24-2.18-1.18 0-3.09.16-4.23.389 0 0-3.44.668-4.86 1.78 0 0-.312.192-.142.627l1.12 3c.139.389.518.256.518.256s.119-.047.259-.13c3.03-1.65 6.87-1.6 6.87-1.6 1.7 0 3.02.345 3.9 1.02.861.661 1.3 1.66 1.3 3.76v.667c-1.35-.196-2.6-.309-2.6-.309l-.015-.037Zm127-8.13a.417.417 0 0 0 .002-.334.427.427 0 0 0-.239-.234c-.269-.102-1.61-.385-2.64-.449-1.98-.124-3.08.21-4.07.654-.978.441-2.06 1.15-2.66 1.97l-.002-1.92c0-.264-.187-.477-.453-.477h-4.04c-.262 0-.452.213-.452.477v23.5c0 .127.051.249.141.338.089.09.211.141.338.141h4.14a.478.478 0 0 0 .478-.479v-11.8c0-1.58.174-3.15.521-4.14.342-.979.807-1.76 1.38-2.32a4.789 4.789 0 0 1 1.95-1.17 7.681 7.681 0 0 1 2.12-.298c.825 0 1.73.212 1.73.212.304.034.473-.152.576-.426.271-.721 1.04-2.88 1.19-3.31" fill="#FFFFFE"/><path d="M162.201 67.548a13.247 13.247 0 0 0-1.559-.37 12.219 12.219 0 0 0-2.144-.166c-2.853 0-5.102.806-6.681 2.398-1.568 1.58-2.635 3.987-3.17 7.154l-.193 1.069h-3.581s-.437-.018-.529.459l-.588 3.28c-.041.314.094.51.514.508h3.486l-3.537 19.743c-.277 1.59-.594 2.898-.945 3.889-.346.978-.684 1.711-1.1 2.243-.403.515-.785.894-1.444 1.115-.544.183-1.17.267-1.856.267-.382 0-.89-.064-1.265-.139-.375-.074-.57-.158-.851-.276 0 0-.409-.156-.57.254-.131.335-1.06 2.89-1.17 3.206-.112.312.045.558.243.629.464.166.809.272 1.441.421.878.207 1.618.22 2.311.22 1.452 0 2.775-.204 3.872-.6 1.104-.399 2.065-1.094 2.915-2.035.919-1.015 1.497-2.078 2.05-3.528.547-1.437 1.013-3.221 1.386-5.3l3.554-20.109h5.196s.438.016.529-.459l.588-3.28c.041-.314-.093-.51-.515-.508h-5.043c.025-.114.254-1.888.833-3.558.247-.713.712-1.288 1.106-1.683a3.274 3.274 0 0 1 1.321-.822 5.479 5.479 0 0 1 1.693-.244c.475 0 .941.057 1.296.131.489.104.679.159.807.197.514.157.583.005.684-.244l1.206-3.312c.124-.356-.178-.506-.29-.55Zm-70.474 34.117c0 .264-.188.479-.452.479h-4.183c-.265 0-.453-.215-.453-.479V67.997c0-.263.188-.476.453-.476h4.183c.264 0 .452.213.452.476v33.668" fill="#FFFFFE"/></g></svg>

<svg width="273" height="191" viewBox="0 0 273 191" fill="none" xmlns="http://www.w3.org/2000/svg">
<mask id="mask0_1:2" style="mask-type:alpha" maskUnits="userSpaceOnUse" x="0" y="0" width="273" height="191">
<path d="M0.0599976 0.5H272.06V190.5H0.0599976V0.5Z" fill="white"/>
</mask>
<g mask="url(#mask0_1:2)">
<path fill-rule="evenodd" clip-rule="evenodd" d="M113 21.3C121.78 12.16 134 6.5 147.5 6.5C165.5 6.5 181.1 16.5 189.5 31.4C196.956 28.0667 205.033 26.3459 213.2 26.35C245.6 26.35 271.9 52.85 271.9 85.55C271.9 118.25 245.6 144.75 213.2 144.75C209.24 144.75 205.38 144.352 201.6 143.6C194.25 156.7 180.2 165.6 164.2 165.6C157.686 165.613 151.255 164.135 145.4 161.28C137.95 178.78 120.6 191.08 100.4 191.08C79.3 191.08 61.4 177.78 54.5 159.08C51.429 159.728 48.2987 160.054 45.16 160.052C20.06 160.052 -0.240005 139.452 -0.240005 114.152C-0.240005 97.152 8.89999 82.352 22.46 74.352C19.5832 67.725 18.1025 60.5765 18.11 53.352C18.11 24.152 41.81 0.551998 71.01 0.551998C88.11 0.551998 103.41 8.702 113.01 21.352" fill="#00A1E0"/>
<path fill-rule="evenodd" clip-rule="evenodd" d="M39.4 99.3C39.229 99.746 39.461 99.839 39.516 99.918C40.027 100.288 40.546 100.556 41.066 100.857C43.846 102.327 46.466 102.757 49.206 102.757C54.786 102.757 58.256 99.787 58.256 95.007V94.913C58.256 90.493 54.336 88.883 50.676 87.733L50.197 87.578C47.427 86.68 45.037 85.898 45.037 84.078V83.985C45.037 82.425 46.437 81.275 48.597 81.275C50.997 81.275 53.857 82.074 55.687 83.085C55.687 83.085 56.229 83.435 56.426 82.912C56.533 82.629 57.466 80.132 57.566 79.852C57.672 79.559 57.486 79.338 57.295 79.224C55.195 77.944 52.295 77.074 49.295 77.074L48.738 77.076C43.628 77.076 40.058 80.166 40.058 84.586V84.681C40.058 89.341 43.998 90.861 47.678 91.911L48.27 92.095C50.95 92.919 53.27 93.635 53.27 95.515V95.609C53.27 97.339 51.76 98.629 49.34 98.629C48.399 98.629 45.4 98.613 42.15 96.559C41.757 96.33 41.533 96.165 41.23 95.98C41.07 95.883 40.67 95.708 40.496 96.232L39.396 99.292L39.4 99.3ZM121.096 99.292C120.925 99.738 121.157 99.831 121.214 99.91C121.723 100.28 122.244 100.548 122.764 100.849C125.544 102.319 128.164 102.749 130.904 102.749C136.484 102.749 139.954 99.779 139.954 94.999V94.905C139.954 90.485 136.044 88.875 132.374 87.725L131.895 87.57C129.125 86.672 126.735 85.89 126.735 84.07V83.977C126.735 82.417 128.135 81.267 130.295 81.267C132.695 81.267 135.545 82.066 137.385 83.077C137.385 83.077 137.927 83.427 138.125 82.904C138.231 82.621 139.165 80.124 139.255 79.844C139.362 79.551 139.175 79.33 138.985 79.216C136.885 77.936 133.985 77.066 130.985 77.066L130.427 77.068C125.317 77.068 121.747 80.158 121.747 84.578V84.673C121.747 89.333 125.687 90.853 129.367 91.903L129.958 92.087C132.648 92.911 134.958 93.627 134.958 95.507V95.601C134.958 97.331 133.448 98.621 131.028 98.621C130.085 98.621 127.078 98.605 123.838 96.551C123.445 96.322 123.215 96.164 122.917 95.972C122.816 95.908 122.345 95.724 122.184 96.224L121.084 99.284L121.096 99.292ZM176.884 89.924C176.884 92.624 176.38 94.754 175.394 96.264C174.41 97.754 172.924 98.484 170.854 98.484C168.784 98.484 167.304 97.76 166.334 96.274C165.357 94.774 164.864 92.634 164.864 89.934C164.864 87.234 165.36 85.114 166.334 83.624C167.302 82.144 168.774 81.434 170.854 81.434C172.934 81.434 174.414 82.151 175.394 83.624C176.386 85.114 176.884 87.234 176.884 89.934V89.924ZM181.544 84.924C181.085 83.374 180.374 82.014 179.424 80.874C178.473 79.734 177.274 78.814 175.844 78.154C174.424 77.489 172.744 77.154 170.844 77.154C168.944 77.154 167.274 77.491 165.844 78.154C164.424 78.818 163.214 79.734 162.264 80.874C161.316 82.014 160.604 83.374 160.144 84.924C159.689 86.464 159.458 88.144 159.458 89.934C159.458 91.724 159.689 93.404 160.144 94.944C160.601 96.494 161.314 97.854 162.264 98.994C163.215 100.134 164.424 101.044 165.844 101.694C167.274 102.342 168.954 102.672 170.844 102.672C172.734 102.672 174.414 102.342 175.834 101.694C177.254 101.046 178.464 100.134 179.414 98.994C180.363 97.854 181.074 96.494 181.534 94.944C181.988 93.404 182.219 91.724 182.219 89.934C182.219 88.154 181.988 86.464 181.534 84.924H181.544ZM219.834 97.724C219.681 97.271 219.239 97.442 219.239 97.442C218.562 97.701 217.839 97.941 217.069 98.061C216.293 98.183 215.429 98.244 214.519 98.244C212.269 98.244 210.469 97.573 209.189 96.244C207.899 94.914 207.179 92.774 207.189 89.874C207.196 87.234 207.834 85.254 208.979 83.734C210.109 82.234 211.849 81.454 214.149 81.454C216.069 81.454 217.539 81.677 219.079 82.159C219.079 82.159 219.444 82.318 219.619 81.837C220.028 80.707 220.33 79.897 220.769 78.657C220.893 78.302 220.589 78.152 220.478 78.109C219.874 77.873 218.448 77.486 217.368 77.323C216.358 77.169 215.188 77.089 213.868 77.089C211.908 77.089 210.168 77.424 208.678 78.088C207.188 78.751 205.928 79.668 204.928 80.808C203.928 81.948 203.168 83.308 202.658 84.858C202.153 86.398 201.898 88.088 201.898 89.878C201.898 93.738 202.938 96.868 204.998 99.158C207.058 101.458 210.158 102.618 214.198 102.618C216.588 102.618 219.038 102.135 220.798 101.438C220.798 101.438 221.134 101.276 220.988 100.884L219.838 97.724H219.834ZM227.988 87.324C228.211 85.824 228.622 84.574 229.268 83.604C230.235 82.124 231.708 81.314 233.778 81.314C235.848 81.314 237.218 82.128 238.198 83.604C238.848 84.579 239.132 85.874 239.238 87.324L227.938 87.322L227.988 87.324ZM243.688 84.024C243.291 82.534 242.308 81.024 241.668 80.334C240.648 79.244 239.658 78.474 238.668 78.054C237.239 77.4462 235.701 77.1343 234.148 77.137C232.178 77.137 230.388 77.47 228.938 78.147C227.488 78.829 226.268 79.757 225.308 80.917C224.349 82.077 223.628 83.447 223.168 85.017C222.708 86.567 222.476 88.267 222.476 90.047C222.476 91.867 222.717 93.557 223.191 95.087C223.67 96.627 224.441 97.977 225.481 99.097C226.521 100.227 227.851 101.107 229.451 101.727C231.041 102.342 232.971 102.661 235.181 102.654C239.741 102.639 242.141 101.624 243.121 101.074C243.296 100.976 243.461 100.807 243.255 100.32L242.225 97.43C242.067 96.999 241.631 97.155 241.631 97.155C240.501 97.577 238.901 98.335 235.151 98.325C232.701 98.321 230.891 97.598 229.751 96.465C228.591 95.305 228.011 93.615 227.921 91.215L243.721 91.227C243.721 91.227 244.137 91.223 244.18 90.817C244.197 90.649 244.721 87.577 243.709 84.027L243.688 84.024ZM101.688 87.324C101.911 85.824 102.323 84.574 102.968 83.604C103.936 82.124 105.408 81.314 107.478 81.314C109.548 81.314 110.918 82.128 111.898 83.604C112.547 84.579 112.831 85.874 112.938 87.324L101.638 87.322L101.688 87.324ZM117.388 84.024C116.992 82.534 116.008 81.024 115.368 80.334C114.348 79.244 113.358 78.474 112.368 78.054C110.939 77.4462 109.401 77.1343 107.848 77.137C105.878 77.137 104.088 77.47 102.638 78.147C101.188 78.829 99.968 79.757 99.008 80.917C98.051 82.077 97.328 83.447 96.868 85.017C96.409 86.567 96.178 88.267 96.178 90.047C96.178 91.867 96.417 93.557 96.894 95.087C97.372 96.627 98.144 97.977 99.174 99.097C100.214 100.227 101.544 101.107 103.144 101.727C104.734 102.342 106.654 102.661 108.874 102.654C113.434 102.639 115.834 101.624 116.814 101.074C116.988 100.976 117.154 100.807 116.947 100.32L115.917 97.43C115.758 96.999 115.322 97.155 115.322 97.155C114.192 97.577 112.592 98.335 108.842 98.325C106.402 98.321 104.582 97.598 103.442 96.465C102.282 95.305 101.702 93.615 101.612 91.215L117.412 91.227C117.412 91.227 117.828 91.223 117.871 90.817C117.888 90.649 118.412 87.577 117.399 84.027L117.388 84.024ZM67.588 97.624C66.969 97.13 66.883 97.009 66.678 96.688C66.365 96.205 66.205 95.518 66.205 94.638C66.205 93.258 66.665 92.258 67.615 91.588C67.605 91.59 68.975 90.408 72.195 90.448C73.6282 90.4737 75.0581 90.5956 76.475 90.813V97.983H76.477C76.477 97.983 74.477 98.414 72.217 98.55C69.007 98.743 67.587 97.626 67.597 97.629L67.588 97.624ZM73.868 86.524C73.228 86.477 72.398 86.454 71.408 86.454C70.058 86.454 68.748 86.622 67.528 86.952C66.298 87.284 65.188 87.798 64.238 88.482C63.2854 89.1616 62.5019 90.0512 61.948 91.082C61.389 92.122 61.104 93.342 61.104 94.722C61.104 96.122 61.347 97.332 61.827 98.322C62.2973 99.304 63.0054 100.153 63.887 100.792C64.764 101.43 65.847 101.902 67.097 102.182C68.337 102.465 69.737 102.608 71.277 102.608C72.897 102.608 74.507 102.472 76.067 102.209C77.3957 101.98 78.7193 101.722 80.037 101.437C80.563 101.316 81.147 101.157 81.147 101.157C81.537 101.058 81.507 100.641 81.507 100.641L81.498 86.241C81.498 83.081 80.654 80.731 78.988 79.281C77.328 77.831 74.898 77.101 71.748 77.101C70.568 77.101 68.658 77.261 67.518 77.49C67.518 77.49 64.078 78.158 62.658 79.27C62.658 79.27 62.346 79.462 62.516 79.897L63.636 82.897C63.775 83.286 64.154 83.153 64.154 83.153C64.154 83.153 64.273 83.106 64.413 83.023C67.443 81.373 71.283 81.423 71.283 81.423C72.983 81.423 74.303 81.768 75.183 82.443C76.044 83.104 76.483 84.103 76.483 86.203V86.87C75.133 86.674 73.883 86.561 73.883 86.561L73.868 86.524ZM200.868 78.394C200.891 78.3413 200.903 78.2845 200.903 78.2271C200.903 78.1696 200.892 78.1127 200.87 78.0597C200.848 78.0067 200.815 77.9587 200.774 77.9186C200.733 77.8784 200.684 77.8469 200.631 77.826C200.362 77.724 199.021 77.441 197.991 77.377C196.011 77.253 194.911 77.587 193.921 78.031C192.943 78.472 191.861 79.181 191.261 80.001L191.259 78.081C191.259 77.817 191.072 77.604 190.806 77.604H186.766C186.504 77.604 186.314 77.817 186.314 78.081V101.581C186.314 101.708 186.365 101.83 186.455 101.919C186.544 102.009 186.666 102.06 186.793 102.06H190.933C191.06 102.06 191.181 102.009 191.271 101.919C191.361 101.83 191.411 101.708 191.411 101.581V89.781C191.411 88.201 191.585 86.631 191.932 85.641C192.274 84.662 192.739 83.881 193.312 83.321C193.859 82.7801 194.527 82.3788 195.262 82.151C195.951 81.9532 196.665 81.8529 197.382 81.853C198.207 81.853 199.112 82.065 199.112 82.065C199.416 82.099 199.585 81.913 199.688 81.639C199.959 80.918 200.728 78.759 200.878 78.329" fill="#FFFFFE"/>
<path fill-rule="evenodd" clip-rule="evenodd" d="M162.201 67.548C161.689 67.3933 161.169 67.2698 160.642 67.178C159.934 67.0598 159.216 67.0042 158.498 67.012C155.645 67.012 153.396 67.818 151.817 69.41C150.249 70.99 149.182 73.397 148.647 76.564L148.454 77.633H144.873C144.873 77.633 144.436 77.615 144.344 78.092L143.756 81.372C143.715 81.686 143.85 81.882 144.27 81.88H147.756L144.219 101.623C143.942 103.213 143.625 104.521 143.274 105.512C142.928 106.49 142.59 107.223 142.174 107.755C141.771 108.27 141.389 108.649 140.73 108.87C140.186 109.053 139.56 109.137 138.874 109.137C138.492 109.137 137.984 109.073 137.609 108.998C137.234 108.924 137.039 108.84 136.758 108.722C136.758 108.722 136.349 108.566 136.188 108.976C136.057 109.311 135.128 111.866 135.018 112.182C134.906 112.494 135.063 112.74 135.261 112.811C135.725 112.977 136.07 113.083 136.702 113.232C137.58 113.439 138.32 113.452 139.013 113.452C140.465 113.452 141.788 113.248 142.885 112.852C143.989 112.453 144.95 111.758 145.8 110.817C146.719 109.802 147.297 108.739 147.85 107.289C148.397 105.852 148.863 104.068 149.236 101.989L152.79 81.88H157.986C157.986 81.88 158.424 81.896 158.515 81.421L159.103 78.141C159.144 77.827 159.01 77.631 158.588 77.633H153.545C153.57 77.519 153.799 75.745 154.378 74.075C154.625 73.362 155.09 72.787 155.484 72.392C155.852 72.0158 156.305 71.7338 156.805 71.57C157.353 71.4006 157.924 71.3182 158.498 71.326C158.973 71.326 159.439 71.383 159.794 71.457C160.283 71.561 160.473 71.616 160.601 71.654C161.115 71.811 161.184 71.659 161.285 71.41L162.491 68.098C162.615 67.742 162.313 67.592 162.201 67.548V67.548ZM91.727 101.665C91.727 101.929 91.539 102.144 91.275 102.144H87.092C86.827 102.144 86.639 101.929 86.639 101.665V67.997C86.639 67.734 86.827 67.521 87.092 67.521H91.275C91.539 67.521 91.727 67.734 91.727 67.997V101.665" fill="#FFFFFE"/>
</g>
</svg>
